X:1
T:Ah, dear heart - Gibbons
T:James Gibb editions
T:James Gibb editions
T:#
%%score [ 1 2 { 3 | 4 } 5 ]
L:1/8
Q:1/4=87
M:2/2
K:F
V:1 treble nm="Soprano" snm="S"
V:2 treble nm="Alto" snm="A"
V:3 treble-8 nm="Tenor 1" snm="T"
V:4 treble-8 
V:5 bass nm="Bass" snm="B"
V:1
"^Ah, dear heart""^Orlando Gibbons\n(1583-1625)" z8 | z8 | z4!mp! d4- | d2 c2 c4- | %4
w: ||Ah,|* dear heart,|
[M:2/2] c2 F2 F2 G2 | A6 A2 |"^cresc." G2 F2 E2 c2 | =B2 (A4"^/" ^G2) | A4 _B4 | A4"^\" z2!mf! d2 | %10
w: * why do you|rise? The|light that shines comes|from your *|eyes, your|eyes, the|
 c2 B2 A2 f2 | e2 (d4 ^c2) | d4 =c3 B | A4 z4 | z8 |!f! d2 c4 B2 | A3 B c2 d2 | e4 d2 f2- | %18
w: light that shines comes|from your *|eyes, from your|eyes.||The day breaks|not, it is my|heart, To think|
 f2 d2 c2 B2 | A2 A2 G4 | z8 | z8 | A2 c4 A2 | G2 F2 E2 E2 |[Q:1/4=66]!>(! !fermata!D8 || %25
w: * that you and|I must part,|||to think that|you and I must|~~~~~part.~~~~|
!mp![Q:1/4=87] d2!>)! c4 B2 x4 | A3 B c2 d2 | e4!<(! d2 f2-!<)! | x8 | f2 d2 c2 B2 | %30
w: O stay, or|else my joys will|die And per\-||* ish in their|
!>(! A2 A2 G4!>)! | z8 | z8 |"^dim." A2 c4 A2 | %34
w: in- fan- cy,|||and per- ish|
[Q:1/4=84] G2[Q:1/4=78] F2[Q:1/4=73] E2[Q:1/4=68] E2 |!p![Q:1/4=66] !fermata!D8 |] %36
w: in their in- fan-|cy.|
V:2
 z4!mp! A4- | A2 G2 G4- | G2 F2 F2 G2 | A6 (GF) |[M:2/2] E2 (F4 ED) | C2 D4 ^C2 | %6
w: Ah,|* dear heart,|* why do you|rise, why *|do you * *|rise, do you|
 D4 z2"^cresc." E2 | F2 F2 E3 D | C2 D2 G,2 G2 | F2 E2 D2 B2 | A2 (G2- GA F2) | %11
w: rise? The|light that shines comes|from your eyes, the|light that shines comes|from your * * *|
 G2"^cresc."!mf! B2 A4 | G2 F4 E2 |"^ยก" FF c4 B2 | A2 G2 A4 | z8 | z4 z2!f! G2 | E2 E2 F3 E | %18
w: eyes, the light|that shines comes|from your eyes, comes|from your eyes.||The|day breaks not, it|
 D (EFG) A2 (G2- | G2 ^F2) G4 | z8 | z4 D2 D2- | D2 C2 F4 | E2 D4 ^C2 |!>(! !fermata!D8 || %25
w: is my * * heart, my|* * heart,||To think|* that you|and I must|part.|
 z12!>)! | z4 z2!mp! G2 | E2 E2!<(! F3 (E!<)! | DEFG) A2 (G2- |!>(! G2 ^F2) G4!>)! | z8 | %31
w: |O|stay, or else my|* * * * joys will|* * die||
 z4 D2 D2- |"^dim." D2 C2 F4 | E2 D4 ^C2 |!p! !fermata!D8 | x8 |] %36
w: And per\-|* ish in|their in- ~fan-|cy.||
V:3
!mp! f6 e2 | e6 d2 | d4 B4 | F6 G2 |[M:2/2][K:treble-8] A4 B4 | A4 A4 | D4 z4 | %7
w: Ah dear|heart, why|do you|rise, dear|heart, why|do you|rise?|
 z2"^cresc." d2 c2 =B2 | A2 f2 e2 (d2- | d2 ^c2) d4 | z8 | z8 | z8 | z2!mf!"^cresc." f2 e2 d2 | %14
w: The light that|shines comes from your|* * eyes,||||the light that|
 c2 g2 f2 e2 | d2 (e3 fde) | f2!f! e4 d2- | d2 ^c2 d3 e | f6 (Bc) | d4 d2 g2- | g2 e2 c4 | %21
w: shines comes from your|eyes, from * * *|eyes. The day|* breaks not, it|is my *|heart, To ~think|* that you|
 d2 f4 (ed) | (f2 e2) A2 c2- | c2 (FG) A2 A2 |!>(! !fermata!A8 ||!mp! d2!>)! e2- efde x4 | %26
w: and I must *|part, * that you|* and * I must|part.|O stay, * or else my|
 f2 e4 d2- | d2 ^c2!<(! d3 e!<)! | x8 | f6 (Bc) | d4 d2 g2- |!>(! g2 e2 c4!>)! | d2 f4 (ed) | %33
w: joys will die,|* or else my||joys will *|die And per\-|* ish in|their in- fan\- *|
"^dim." f2 e2 AB c2- | c2 (FG) A2 A2 |!p! !fermata!A8 |] %36
w: cy, and per- ish in|* their * in- fan-|cy.|
V:4
!mp! d6 c2 | c6 B2 | B3 (c d2 e2) | f6 (ed) |[M:2/2][K:treble-8] c4 (d2 e2) | f4 e4 | d2 d2 c4 | %7
w: Ah, dear|heart, why|do you * *|rise, dear *|heart, why *|do you|rise, you rise?|
 z8 | z8 |"^cresc." z2!mf! a2 g2 (f2- | fg e2) f2 d2 | e2 g2 f2 e2 | d2 b2 a2 g2 | f2 a2 g3 f | %14
w: ||The light that|* * * shines comes|from your eyes, your|eyes, the light that|shines comes from your|
 e2 (d4 ^c2) | d2 z2 z4 | z8 | z2!f! A2 A2 F2 | B4 A2 d2- | d (c A2) =B4 | G2 c3 (BAG) | FG A4 G2 | %22
w: eyes, your *|eyes.||The day breaks|not, it is|* my * heart,|To think that * *|you and I must|
 A6 A2 | EE A2- A (G E2) | !fermata!^F8 ||!mp! B2 A4 G2 x4 | FG A4 D2 |!<(! A6 F2!<)! | x8 | %29
w: part, that|you and I * must *|part.|O stay, or|else my joys will|die And||
 B2 B2 A2 d2- | d!>(!c A2 =B4!>)! | G2 c3 BAG |"^!" FG A4 G2 |"^dim." A6 A2 | EE A2- A (G E2) | %35
w: per- ish in their|* in- fan- cy.|O stay, or else my|joys will die, and|per- ish|in their in\- * fan\- *|
!p! !fermata!^F8 |] %36
w: cy.|
V:5
 z8 | z8 | z8 | z8 |[M:2/2] z8 | z4!mp! A,,4 |"^cresc." =B,,4 C,4 | D,4 E,4 | F,4 G,4 | A,4 B,4 | %10
w: |||||The|light that|shines comes|from your|eyes, the|
 C4 D4 | G,4 A,4 | B,4 C4 | F,2 F,2 G,2 G,2 | A,2 B,2 A,4 |!f! B,2 A,4 G,2 | DD C4 B,2 | %17
w: light that|shines comes|from your|eyes, comes from your|eyes, your eyes.|The day breaks|not, it is my|
 A,2 A,,2 D,3 (C, | B,,C,D,E,) F,2 G,2 | D,2 D,2 G,2 G,2 | E,2 C,2 F,3 E, | (D,3 C, B,,A,,) B,,2 | %22
w: heart, To think that|* * * * you and|I must part, to|think that you and|I * * * must|
 A,,3 G,, F,, (G,,A,,B,,) | C,2 D,2 A,,2 A,,2 |!>(! !fermata!D,8 || z12!>)! |!mp! D,2 C,4 B,,2 | %27
w: part, to think that * *|you and I must|part.||O stay, or|
 A,,2 A,,2 D,3 C, | B,,C,D,E, F,2 G,2 |!>(! D,2 D,2 G,2!>)! G,2 | E,2 C,2 F,3 E, | %31
w: else my joys will|die And per- ish in their|in- fan- cy, and|per- ish in their|
 (D,3 C, B,,A,,) B,,2 |"^dim." A,,3 G,, (F,,G,,) (A,,B,,) | C,2 D,2 A,,2 A,,2 |!p! !fermata!D,8 | %35
w: in\- * * * fan-|cy, and per\- * ish *|in their in- fan-|cy.|
 x8 |] %36
w: |

